X: 2
T: The Britches Full Of Stitches
R: polka
M: 2/4
L: 1/8
K: Amaj
|: E/F/ |A>B cA | BA cA | A>B c/B/A | FA EF |
AA/B/ cA | BA ce | | A>B AF | FE E :|
c |ee/f/ ec | BA Bc | e>f ec | BA F2 |
e>f ec | BA Bc | AA/B/ c/B/A |FA E>c |
ef ec | B>^A Bc | a>f e/f/e/c/ | BA FA |
e2 ec | BA B2 | AA/B/ A/G/F | FE E |]


Tune 1075	Setting 28608

